X:106
T:Mr. Mellish's Dance THO4.106
M:2/4
L:1/8
Z:vmp. Peter Dunk 2010/11.from a transcription by Fynn Titford-Mock 2007
B:Thompson's Compleat Collection of 200 Favourite Country Dances Volume IV.
Q:1/4=120
K:A
c>BAA|AABA|c>BAA|AEAz::c>dee|f>gaA|
c>dee|[L:1/16]fedc B4::ecec AABc|dBdB AGFE|ABcd efga|c2B2 A4:|
